symbols/web/punch_clock/materialsymbolsrounded/punch_clock_wght100grad200_40px.svg

<svg xmlns="http://www.w3.org/2000/svg" height="40" width="40"><path d="M8.792 35.917q-1.292 0-2.167-.875-.875-.875-.875-2.167V13.75q0-1.25.875-2.146.875-.896 2.167-.896h2.041V5.417q0-1.25.875-2.146.875-.896 2.167-.896h12.292q1.25 0 2.145.896.896.896.896 2.146v5.291h2.042q1.25 0 2.146.896.896.896.896 2.146v19.125q0 1.292-.896 2.167-.896.875-2.146.875Zm3.75-25.209H27.5V5.417q0-.584-.375-.959t-.958-.375H13.875q-.583 0-.958.375t-.375.959Zm-3.75 23.5H31.25q.5 0 .917-.416.416-.417.416-.917V13.75q0-.5-.416-.917-.417-.416-.917-.416H8.792q-.5 0-.917.416-.417.417-.417.917v19.125q0 .5.417.917.417.416.917.416Zm11.208-3q-3.292 0-5.583-2.291-2.292-2.292-2.292-5.584 0-3.291 2.292-5.604 2.291-2.312 5.583-2.312 3.292 0 5.604 2.312 2.313 2.313 2.313 5.604 0 3.292-2.313 5.584-2.312 2.291-5.604 2.291Zm0-1.625q2.625 0 4.458-1.812 1.834-1.813 1.834-4.438t-1.834-4.458Q22.625 17.042 20 17.042t-4.438 1.833q-1.812 1.833-1.812 4.458t1.812 4.438q1.813 1.812 4.438 1.812Zm1.333-3.75-1.958-1.916q-.042-.042-.25-.584V20q0-.417.229-.646.229-.229.646-.229.417 0 .646.229.229.229.229.646v2.958l1.667 1.667q.25.25.27.604.021.354-.27.604-.292.334-.625.334-.334 0-.584-.334ZM20 23.333Z"/></svg>

<svg xmlns="http://www.w3.org/2000/svg" height="40" width="40"><path d="M8.792 35.917Q7.5 35.917 6.625 35.042Q5.75 34.167 5.75 32.875V13.75Q5.75 12.5 6.625 11.604Q7.5 10.708 8.792 10.708H10.833V5.417Q10.833 4.167 11.708 3.271Q12.583 2.375 13.875 2.375H26.167Q27.417 2.375 28.312 3.271Q29.208 4.167 29.208 5.417V10.708H31.25Q32.5 10.708 33.396 11.604Q34.292 12.5 34.292 13.75V32.875Q34.292 34.167 33.396 35.042Q32.5 35.917 31.25 35.917ZM12.542 10.708H27.5V5.417Q27.5 4.833 27.125 4.458Q26.75 4.083 26.167 4.083H13.875Q13.292 4.083 12.917 4.458Q12.542 4.833 12.542 5.417ZM8.792 34.208H31.25Q31.75 34.208 32.167 33.792Q32.583 33.375 32.583 32.875V13.75Q32.583 13.25 32.167 12.833Q31.75 12.417 31.25 12.417H8.792Q8.292 12.417 7.875 12.833Q7.458 13.25 7.458 13.75V32.875Q7.458 33.375 7.875 33.792Q8.292 34.208 8.792 34.208ZM20 31.208Q16.708 31.208 14.417 28.917Q12.125 26.625 12.125 23.333Q12.125 20.042 14.417 17.729Q16.708 15.417 20 15.417Q23.292 15.417 25.604 17.729Q27.917 20.042 27.917 23.333Q27.917 26.625 25.604 28.917Q23.292 31.208 20 31.208ZM20 29.583Q22.625 29.583 24.458 27.771Q26.292 25.958 26.292 23.333Q26.292 20.708 24.458 18.875Q22.625 17.042 20 17.042Q17.375 17.042 15.562 18.875Q13.75 20.708 13.75 23.333Q13.75 25.958 15.562 27.771Q17.375 29.583 20 29.583ZM21.333 25.833 19.375 23.917Q19.333 23.875 19.125 23.333V20Q19.125 19.583 19.354 19.354Q19.583 19.125 20 19.125Q20.417 19.125 20.646 19.354Q20.875 19.583 20.875 20V22.958L22.542 24.625Q22.792 24.875 22.812 25.229Q22.833 25.583 22.542 25.833Q22.25 26.167 21.917 26.167Q21.583 26.167 21.333 25.833ZM20 23.333Q20 23.333 20 23.333Q20 23.333 20 23.333Q20 23.333 20 23.333Q20 23.333 20 23.333Q20 23.333 20 23.333Q20 23.333 20 23.333Q20 23.333 20 23.333Q20 23.333 20 23.333Z"/></svg>
